svg/NEPAnode-FreeOpenSourceLicenses/licenses-cc-pd-public_domain.svg

<svg enable-background="new 5.5 -3.5 64 64" viewBox="5.5 -3.5 64 64" xmlns="http://www.w3.org/2000/svg"><circle cx="37.471" cy="28.424" fill="#fff" r="28.553"/><path d="m37.443-3.5c8.988 0 16.58 3.096 22.77 9.286 6.191 6.19 9.287 13.761 9.287 22.714 0 8.954-3.049 16.437-9.145 22.456-6.437 6.363-14.08 9.544-22.912 9.544-8.687 0-16.182-3.144-22.486-9.43-6.306-6.286-9.457-13.808-9.457-22.57 0-8.761 3.144-16.342 9.429-22.742 6.172-6.173 13.675-9.258 22.514-9.258m.086 5.772c-7.257 0-13.401 2.553-18.428 7.657-5.22 5.296-7.829 11.486-7.829 18.572s2.59 13.22 7.771 18.398c5.181 5.182 11.352 7.771 18.514 7.771 7.162 0 13.371-2.607 18.629-7.828 5.03-4.877 7.543-10.991 7.543-18.343 0-7.314-2.553-13.504-7.656-18.571-5.106-5.104-11.288-7.656-18.544-7.656m-15.06 34.914v-17.714h8.8c4.342 0 6.514 1.999 6.514 6 0 .686-.105 1.342-.314 1.972-.209.629-.572 1.256-1.086 1.886-.514.629-1.285 1.143-2.314 1.543-1.028.399-2.247.6-3.656.6h-3.486v5.714h-4.458zm4.4-14.401v5.372h3.771c.914 0 1.6-.258 2.058-.772.458-.513.687-1.152.687-1.915 0-1.79-.953-2.686-2.858-2.686h-3.657zm12.11 14.401v-17.714h6.859c2.818 0 5.03.724 6.629 2.171 1.598 1.448 2.398 3.677 2.398 6.686 0 3.01-.801 5.24-2.398 6.686-1.602 1.447-3.811 2.171-6.629 2.171h-6.859m4.403-14v10.287h2.57c1.562 0 2.695-.466 3.4-1.401.705-.933 1.057-2.179 1.057-3.742 0-1.562-.352-2.809-1.057-3.743-.705-.933-1.857-1.399-3.457-1.399l-2.513-.002"/></svg>

<?xml version="1.0" encoding="utf-8"?>
<!-- Generator: Adobe Illustrator 13.0.2, SVG Export Plug-In . SVG Version: 6.00 Build 14948)  --><svg enable-background="new 5.5 -3.5 64 64" height="64px" id="Layer_1" space="preserve" version="1.0" viewBox="5.5 -3.5 64 64" width="64px" x="0px" xmlns="http://www.w3.org/2000/svg" xmlns:xlink="http://www.w3.org/1999/xlink" y="0px">
  <metadata>
    <rdf:RDF xmlns:cc="http://web.resource.org/cc/" xmlns:dc="http://purl.org/dc/elements/1.1/" xmlns:rdf="http://www.w3.org/1999/02/22-rdf-syntax-ns#">
      <cc:Work rdf:about="">
        <dc:title></dc:title>
        <dc:description></dc:description>
        <dc:subject>
          <rdf:Bag>
            <rdf:li></rdf:li>
          </rdf:Bag>
        </dc:subject>
        <dc:publisher>
          <cc:Agent rdf:about="http://creativecommons.org/about/downloads">
            <dc:title>Source: Creative Commons, Source: Creative Commons, Source: Creative Commons</dc:title>
          </cc:Agent>
        </dc:publisher>
        <dc:creator>
          <cc:Agent>
            <dc:title></dc:title>
          </cc:Agent>
        </dc:creator>
        <dc:rights>
          <cc:Agent>
            <dc:title></dc:title>
          </cc:Agent>
        </dc:rights>
        <dc:date></dc:date>
        <dc:format>image/svg+xml</dc:format>
        <dc:type rdf:resource="http://purl.org/dc/dcmitype/StillImage"/>
        <cc:license rdf:resource="http://creativecommons.org/licenses/by/3.0/"/>
        <dc:language>en</dc:language>
      </cc:Work>
    </rdf:RDF>
  </metadata>
  <g>
    <circle cx="37.471" cy="28.424" fill="#FFFFFF" r="28.553"/>
    <g>
      <path d="M37.443-3.5c8.988,0,16.58,3.096,22.77,9.286C66.404,11.976,69.5,19.547,69.5,28.5c0,8.954-3.049,16.437-9.145,22.456    C53.918,57.319,46.279,60.5,37.443,60.5c-8.687,0-16.182-3.144-22.486-9.43C8.651,44.784,5.5,37.262,5.5,28.5    c0-8.761,3.144-16.342,9.429-22.742C21.101-0.415,28.604-3.5,37.443-3.5z M37.529,2.272c-7.257,0-13.401,2.553-18.428,7.657    c-5.22,5.296-7.829,11.486-7.829,18.572s2.59,13.22,7.771,18.398c5.181,5.182,11.352,7.771,18.514,7.771    c7.162,0,13.371-2.607,18.629-7.828c5.029-4.877,7.543-10.991,7.543-18.343c0-7.314-2.553-13.504-7.656-18.571    C50.967,4.824,44.785,2.272,37.529,2.272z M22.471,37.186V19.472h8.8c4.342,0,6.514,1.999,6.514,6    c0,0.686-0.105,1.342-0.314,1.972c-0.209,0.629-0.572,1.256-1.086,1.886c-0.514,0.629-1.285,1.143-2.314,1.543    c-1.028,0.399-2.247,0.6-3.656,0.6h-3.486v5.714H22.471z M26.871,22.785v5.372h3.771c0.914,0,1.6-0.258,2.058-0.772    c0.458-0.513,0.687-1.152,0.687-1.915c0-1.79-0.953-2.686-2.858-2.686h-3.657V22.785z M38.984,37.186V19.472h6.859    c2.818,0,5.027,0.724,6.629,2.171c1.598,1.448,2.398,3.677,2.398,6.686c0,3.01-0.801,5.24-2.398,6.686    c-1.602,1.447-3.811,2.171-6.629,2.171H38.984z M43.387,23.186v10.287h2.57c1.562,0,2.695-0.466,3.4-1.401    c0.705-0.933,1.057-2.179,1.057-3.742c0-1.562-0.352-2.809-1.057-3.743c-0.705-0.933-1.857-1.399-3.457-1.399L43.387,23.186    L43.387,23.186z"/>
    </g>
  </g>
</svg>
